source/images/bg-shopping.svg

<svg width="17" height="20" viewBox="0 0 17 20" fill="none" xmlns="http://www.w3.org/2000/svg">
<path d="M11.1942 3.22422C11.0133 1.95628 9.90962 1 8.62711 1C7.80231 1 7.01899 1.39801 6.53195 2.06505C6.43247 2.20109 6.46224 2.39191 6.59827 2.49139C6.73386 2.59052 6.92514 2.56111 7.02444 2.42489C7.39724 1.9148 7.99627 1.6102 8.62702 1.6102C9.60788 1.6102 10.4517 2.34115 10.5901 3.31029C10.6119 3.46251 10.7425 3.57235 10.8918 3.57235C10.906 3.57235 10.9207 3.57128 10.9353 3.56932C11.102 3.54545 11.218 3.39091 11.1942 3.22422Z" fill="#3634E3" stroke="#3634E3" stroke-width="0.2"/>
<path d="M15.6005 6.63974L14.6853 5.11429C14.6302 5.02232 14.5309 4.96619 14.4237 4.96619H13.5466C13.3782 4.96619 13.2415 5.10285 13.2415 5.27124C13.2415 5.43963 13.3782 5.57629 13.5466 5.57629H14.251L14.8001 6.49154H2.45401L3.00316 5.57629H3.32626C3.49466 5.57629 3.63132 5.43963 3.63132 5.27124C3.63132 5.10285 3.49466 4.96619 3.32626 4.96619H2.83047C2.72322 4.96619 2.62392 5.02232 2.56886 5.11429L1.65361 6.63974C1.59703 6.73412 1.59569 6.85148 1.64976 6.94711C1.70384 7.04275 1.8052 7.10192 1.91522 7.10192H15.3389C15.449 7.10192 15.5502 7.04275 15.6044 6.94711C15.6586 6.85148 15.6571 6.73394 15.6005 6.63974Z" fill="#3634E3" stroke="#3634E3" stroke-width="0.2"/>
<path d="M14.0799 3.82669C14.0372 3.75778 13.969 3.70889 13.8901 3.69048L9.7312 2.71776C9.65245 2.69926 9.56951 2.71302 9.50069 2.75557C9.43204 2.79829 9.38306 2.86649 9.36465 2.94532L9.05102 4.28602C9.01258 4.45003 9.11448 4.61413 9.27858 4.65239C9.44259 4.69082 9.60687 4.58893 9.64512 4.42482L9.88931 3.38131L13.4541 4.21514L12.8939 6.61007C12.8555 6.77409 12.9574 6.93819 13.1215 6.97644C13.145 6.9819 13.1683 6.98449 13.1914 6.98449C13.3299 6.98449 13.4553 6.88957 13.4879 6.74897L14.1176 4.05703C14.1362 3.97828 14.1226 3.89534 14.0799 3.82669Z" fill="#3634E3" stroke="#3634E3" stroke-width="0.2"/>
<path d="M8.78839 4.54748L8.51042 2.19635C8.50094 2.11599 8.45992 2.04261 8.39628 1.99256C8.33264 1.94251 8.25229 1.91962 8.17158 1.9291L3.06888 2.53223C2.90165 2.55208 2.78206 2.70367 2.80182 2.87107L3.26525 6.79244C3.28366 6.94769 3.41532 7.06183 3.56789 7.06183C3.57978 7.06183 3.59202 7.06103 3.60418 7.05969C3.77132 7.03984 3.89091 6.88826 3.87125 6.72085L3.44356 3.10221L7.94035 2.57076L8.18239 4.6189C8.20224 4.78622 8.35311 4.90509 8.52123 4.88614C8.68846 4.86648 8.80805 4.7148 8.78839 4.54748Z" fill="#3634E3" stroke="#3634E3" stroke-width="0.2"/>
<path d="M11.2012 6.68078L10.5957 4.16259C10.5768 4.08402 10.5273 4.016 10.4584 3.97373C10.3895 3.93181 10.3068 3.91867 10.2277 3.93744L5.31299 5.1194C5.14916 5.15873 5.04834 5.32354 5.08767 5.48738L5.39031 6.74602C5.42963 6.91003 5.59445 7.01094 5.75819 6.97135C5.92203 6.93202 6.02285 6.76721 5.98352 6.60337L5.75212 5.64129L10.0736 4.60216L10.6079 6.8236C10.6414 6.96348 10.7665 7.05733 10.9042 7.05733C10.9279 7.05733 10.9519 7.05456 10.9759 7.04875C11.1398 7.00934 11.2406 6.84461 11.2012 6.68078Z" fill="#3634E3" stroke="#3634E3" stroke-width="0.2"/>
<path d="M15.6439 6.78026C15.6355 6.61812 15.5016 6.49084 15.3391 6.49084H1.91538C1.75289 6.49084 1.619 6.61803 1.6106 6.78026L1.0004 18.6785C0.996112 18.762 1.02632 18.8437 1.08388 18.9043C1.14153 18.9648 1.22144 18.9992 1.3051 18.9992H15.9491C16.0327 18.9992 16.1127 18.9649 16.1706 18.9043C16.2281 18.8437 16.2583 18.7621 16.2541 18.6785L15.6439 6.78026ZM1.62615 18.389L2.20506 7.10095H15.0491L15.628 18.389H1.62615Z" fill="#3634E3" stroke="#3634E3" stroke-width="0.2"/>
<path d="M10.9153 7.71204C10.4105 7.71204 10 8.12256 10 8.62729C10 9.13202 10.4105 9.54254 10.9153 9.54254C11.42 9.54254 11.8305 9.13202 11.8305 8.62729C11.8305 8.12256 11.42 7.71204 10.9153 7.71204ZM10.9153 8.93243C10.747 8.93243 10.6102 8.79559 10.6102 8.62738C10.6102 8.45916 10.747 8.32232 10.9153 8.32232C11.0835 8.32232 11.2203 8.45916 11.2203 8.62738C11.2203 8.79559 11.0835 8.93243 10.9153 8.93243Z" fill="#3634E3" stroke="#3634E3" stroke-width="0.2"/>
<path d="M6.33902 7.71204C5.83429 7.71204 5.42377 8.12256 5.42377 8.62729C5.42377 9.13202 5.83429 9.54254 6.33902 9.54254C6.84375 9.54254 7.25427 9.13202 7.25427 8.62729C7.25427 8.12256 6.84375 7.71204 6.33902 7.71204ZM6.33902 8.93243C6.17081 8.93243 6.03396 8.79559 6.03396 8.62738C6.03396 8.45916 6.17081 8.32232 6.33902 8.32232C6.50723 8.32232 6.64407 8.45916 6.64407 8.62738C6.64407 8.79559 6.50723 8.93243 6.33902 8.93243Z" fill="#3634E3" stroke="#3634E3" stroke-width="0.2"/>
<path d="M10.9152 8.62695H10.8917C10.7233 8.62695 10.5867 8.76362 10.5867 8.93201C10.5867 8.97366 10.5949 9.01343 10.6102 9.04963V10.6099C10.6102 11.7033 9.72059 12.593 8.62712 12.593C7.53364 12.593 6.64404 11.7034 6.64404 10.6099V8.9321C6.64404 8.7637 6.50738 8.62704 6.33899 8.62704C6.1706 8.62704 6.03394 8.7637 6.03394 8.9321V10.61C6.03394 12.0399 7.19722 13.2032 8.62712 13.2032C10.057 13.2032 11.2203 12.0399 11.2203 10.61V8.9321C11.2203 8.7637 11.0836 8.62695 10.9152 8.62695Z" fill="#3634E3" stroke="#3634E3" stroke-width="0.2"/>
</svg>

<svg width="17" height="20" fill="none" xmlns="http://www.w3.org/2000/svg"><path d="M11.194 3.224A2.605 2.605 0 008.627 1c-.825 0-1.608.398-2.095 1.065a.305.305 0 10.492.36c.373-.51.972-.815 1.603-.815.98 0 1.825.731 1.963 1.7a.305.305 0 00.604-.086zM15.6 6.64l-.915-1.526a.305.305 0 00-.261-.148h-.877a.305.305 0 000 .61h.704l.55.916H2.453l.55-.916h.322a.305.305 0 000-.61H2.83a.305.305 0 00-.261.148L1.654 6.64a.305.305 0 00.261.462H15.34a.305.305 0 00.261-.462z" fill="#3634E3" stroke="#3634E3" stroke-width=".2"/><path d="M14.08 3.827a.304.304 0 00-.19-.137l-4.159-.972a.306.306 0 00-.366.227L9.05 4.286a.305.305 0 10.594.139L9.89 3.38l3.565.834-.56 2.395a.305.305 0 10.594.139l.63-2.692a.304.304 0 00-.038-.23zm-5.292.72l-.278-2.35a.305.305 0 00-.338-.268l-5.103.603a.305.305 0 00-.267.34l.463 3.92a.305.305 0 10.606-.071l-.427-3.619 4.496-.531.242 2.048a.305.305 0 00.606-.072z" fill="#3634E3" stroke="#3634E3" stroke-width=".2"/><path d="M11.201 6.68l-.605-2.517a.306.306 0 00-.368-.226L5.313 5.12a.305.305 0 00-.225.368l.302 1.259a.305.305 0 10.594-.143l-.232-.962 4.322-1.039.534 2.222a.305.305 0 10.593-.143z" fill="#3634E3" stroke="#3634E3" stroke-width=".2"/><path d="M15.644 6.78a.305.305 0 00-.305-.29H1.915a.305.305 0 00-.304.29L1 18.678a.305.305 0 00.304.321H15.95a.306.306 0 00.305-.32l-.61-11.899zM1.626 18.39l.58-11.288h12.843l.579 11.288H1.626z" fill="#3634E3" stroke="#3634E3" stroke-width=".2"/><path d="M10.915 7.712a.916.916 0 000 1.83.916.916 0 000-1.83zm0 1.22a.305.305 0 110-.61.305.305 0 010 .61zm-4.576-1.22a.916.916 0 000 1.83.916.916 0 000-1.83zm0 1.22a.305.305 0 110-.61.305.305 0 010 .61z" fill="#3634E3" stroke="#3634E3" stroke-width=".2"/><path d="M10.915 8.627h-.023a.305.305 0 00-.282.423v1.56c0 1.093-.89 1.983-1.983 1.983a1.985 1.985 0 01-1.983-1.983V8.932a.305.305 0 00-.61 0v1.678a2.596 2.596 0 002.593 2.593 2.596 2.596 0 002.593-2.593V8.932a.305.305 0 00-.305-.305z" fill="#3634E3" stroke="#3634E3" stroke-width=".2"/></svg>
